assets/img/braze_icons/bluetooth-on.svg

<svg fill="none" height="24" viewBox="0 0 24 24" width="24" xmlns="http://www.w3.org/2000/svg"><path clip-rule="evenodd" d="m11.5759 1.09442c.3514-.164577.7662-.111032 1.0643.13737l6 5c.228.18999.3598.47144.3598.76822s-.1318.57823-.3598.76822l-5.0781 4.23177 5.0781 4.2318c.228.19.3598.4714.3598.7682s-.1318.5782-.3598.7682l-6 5c-.2981.2484-.7129.302-1.0643.1374s-.5759-.5176-.5759-.9056v-7.8649l-4.35979 3.6331c-.42428.3536-1.05484.2963-1.40841-.128-.35356-.4243-.29624-1.0548.12804-1.4084l5.07816-4.2318-5.07816-4.23177c-.42428-.35356-.4816-.98413-.12804-1.4084.35357-.42428.98413-.4816 1.40841-.12804l4.35979 3.63318v-7.86496c0-.38802.2245-.74101.5759-.90559zm1.4241 13.04068 3.438 2.8649-3.438 2.865zm0-4.27013v-5.72992l3.438 2.86496z" fill="#801ed7" fill-rule="evenodd"/></svg>

<svg width="24" height="24" viewBox="0 0 24 24" fill="none" xmlns="http://www.w3.org/2000/svg">
<path fill-rule="evenodd" clip-rule="evenodd" d="M11.5759 1.09442C11.9273 0.929843 12.3421 0.983388 12.6402 1.23179L18.6402 6.23179C18.8682 6.42178 19 6.70323 19 7.00001C19 7.29679 18.8682 7.57824 18.6402 7.76823L13.5621 12L18.6402 16.2318C18.8682 16.4218 19 16.7032 19 17C19 17.2968 18.8682 17.5782 18.6402 17.7682L12.6402 22.7682C12.3421 23.0166 11.9273 23.0702 11.5759 22.9056C11.2245 22.741 11 22.388 11 22V14.1351L6.64021 17.7682C6.21593 18.1218 5.58537 18.0645 5.2318 17.6402C4.87824 17.2159 4.93556 16.5854 5.35984 16.2318L10.438 12L5.35984 7.76823C4.93556 7.41467 4.87824 6.7841 5.2318 6.35983C5.58537 5.93555 6.21593 5.87823 6.64021 6.23179L11 9.86497V2.00001C11 1.61199 11.2245 1.259 11.5759 1.09442ZM13 14.1351L16.438 17L13 19.865V14.1351ZM13 9.86497V4.13505L16.438 7.00001L13 9.86497Z" fill="#801ED7"/>
</svg>
